qml_ui/images/mobile/checkbox.svg

<?xml version="1.0" encoding="UTF-8"?>
<svg id="_Слой_1" xmlns="http://www.w3.org/2000/svg" version="1.1" viewBox="0 0 12 12">
  <!-- Generator: Adobe Illustrator 29.6.1, SVG Export Plug-In . SVG Version: 2.1.1 Build 9)  -->
  <defs>
    <style>
      .st0 {
        stroke-width: 1.84px;
      }

      .st0, .st1, .st2, .st3, .st4 {
        stroke: #000;
        stroke-miterlimit: 10;
      }

      .st1 {
        fill: none;
      }

      .st1, .st3 {
        stroke-width: 1.5px;
      }

      .st2 {
        stroke-width: .75px;
      }

      .st5 {
        fill: #fff;
      }

      .st6 {
        display: none;
      }
    </style>
  </defs>
  <path class="st6" d="M14,0H6l-2-2H-2c-1.1,0-2,.9-2,2v12c0,1.1.9,2,2,2H14c1.1,0,2-.9,2-2V2c0-1.1-.9-2-2-2Z"/>
  <g id="SUPPORT" class="st6">
    <path class="st2" d="M-.7,3.3c-2.2,0-4,1.8-4,4s1.8,4,4,4c0,0,0-8,0-8Z"/>
    <path class="st2" d="M12.7,3.3c2.2,0,4,1.8,4,4s-1.8,4-4,4c0,0,0-8,0-8Z"/>
    <path class="st1" d="M14.1,4.1C13.9-.1,10.4-3.5,6-3.5S-1.7-.1-1.9,4.1"/>
    <path class="st1" d="M7.2,15.1c4.5-.2,7.3.1,6.7-7.5"/>
    <ellipse class="st3" cx="7.3" cy="15" rx="1.6" ry=".9"/>
  </g>
  <path class="st6" d="M6-5.2L-5.2,6l11.2,11.2,11.2-11.2L6-5.2ZM5,1h2v2h-2V1ZM7,5v6.1h-2v-6.1s2,0,2,0Z"/>
  <g class="st6">
    <circle cx="6" cy="6" r="9.9"/>
    <path class="st5" d="M4.7,9v-.5c-.1-1.1.2-2.3,1.3-3.6.9-1.1,1.4-1.9,1.4-2.8,0-1.1-.7-1.8-2-1.8-.7,0-1.6.2-2.1.6l-.5-1.3c.7-.5,1.9-.8,3-.8,2.4,0,3.5,1.5,3.5,3,0,1.4-.8,2.4-1.8,3.6-.9,1.1-1.2,2-1.2,3v.5h-1.6s0,.1,0,.1ZM4.2,11.9c0-.8.5-1.3,1.2-1.3s1.2.5,1.2,1.3c0,.7-.5,1.3-1.2,1.3s-1.2-.6-1.2-1.3Z"/>
  </g>
  <path id="settings" class="st6" d="M13.7,7c0-.3.1-.7.1-1s0-.7-.1-1l2.2-1.7c.2-.2.2-.4.1-.7l-2-3.6c-.1-.2-.4-.3-.6-.2L10.8-.2c-.5-.4-1.1-.8-1.8-1l-.4-2.8c0-.3-.3-.4-.5-.4H3.9c-.2,0-.5.2-.5.4l-.4,2.8c-.6.3-1.2.6-1.8,1L-1.4-1.2c-.2-.1-.4,0-.6.2l-2,3.6c-.2.2-.1.5.1.7l2.2,1.7c-.1.7-.1,1.4,0,2l-2.2,1.7c-.2.2-.2.4-.1.7l2,3.6c.1.2.4.3.6.2l2.6-1c.5.4,1.1.8,1.8,1l.4,2.8c0,.3.3.4.5.4h4.2c.3,0,.5-.2.5-.4l.4-2.8c.6-.3,1.2-.6,1.8-1l2.6,1c.2.1.5,0,.6-.2l2.1-3.6c.1-.2.1-.5-.1-.7l-2.3-1.7h0ZM6,9.9c-2.2,0-3.9-1.7-3.9-3.9s1.7-3.9,3.9-3.9,3.9,1.7,3.9,3.9h0c0,2.2-1.8,3.9-3.9,3.9Z"/>
  <path id="share" class="st6" d="M8.8,13.4L1.9,9.4c-1.8,1.8-4.6,1.9-6.4.1s-1.9-4.5-.1-6.3S0,1.3,1.8,3c.1.2.2.3.4.4L8.9,0c-.8-2.4.6-5,3.1-5.6,2.4-.8,5,.6,5.6,3.1.6,2.4-.6,5-3.1,5.6-1.4.4-2.9.1-4.1-.8l-7.2,3.7v1l6.5,3.7c1.4-2,4.3-2.6,6.4-1,2,1.4,2.6,4.3,1,6.4-1.5,2-4.3,2.6-6.4,1-1.1-.9-1.9-2.3-1.9-3.7h0Z"/>
  <path id="error" class="st6" d="M-6,16.4h24L6.1-4.4-6,16.4ZM7.5,14.5h-2.9v-2.2h2.9v2.2ZM7.5,11.2h-2.9v-6.9h2.9v6.9Z"/>
  <path id="galka" class="st5" d="M4,8l-3-3-1,2.4,4,3.6L12,3.1l-1-2.1-7,7Z"/>
  <path id="arrow_down" class="st6" d="M6,18l5-5.1h-3.7V-6h-2.5V12.9H1l5,5.1Z"/>
  <path id="arrow_up" class="st6" d="M6-6L.9-.9h3.8v18.9h2.5V-.9h3.8l-5-5.1Z"/>
  <g id="menu" class="st6">
    <circle cx="247" cy="145.8" r="2.8"/>
    <circle cx="247" cy="136.6" r="2.8"/>
    <circle cx="247" cy="155" r="2.8"/>
  </g>
  <g id="burger" class="st6">
    <rect x="-6" y="-3" width="24" height="3.4"/>
    <rect x="-6" y="4.3" width="24" height="3.4"/>
    <rect x="-6" y="11.6" width="24" height="3.4"/>
  </g>
  <polygon id="arrow_back" class="st6" points="15.8 4.1 2.7 4.1 10.6 -3.6 8.2 -6 -1.4 3.6 -1.4 3.6 -3.8 6 -3.8 6 -3.8 6 -1.4 8.4 -1.4 8.4 8.2 18 10.6 15.6 2.6 7.7 15.8 7.7 15.8 4.1"/>
  <path id="search" class="st6" d="M11.1,9h-1.1l-.4-.4c3.1-3.7,2.8-9.4-1-12.5C5-7-.6-6.7-3.8-2.9c-3.1,3.7-2.8,9.4,1,12.5,3.3,2.9,8.2,2.9,11.6,0l.4.4v1.1l6.8,6.9,2-2-6.9-7ZM3,9h0C-.4,9-3.2,6.2-3.2,2.8S-.4-3.4,3-3.4,9.2-.6,9.2,2.8s-2.8,6.2-6.2,6.2Z"/>
  <path id="back" class="st6" d="M45.3,134.8h0c-.6-.6-1.5-.6-2.1,0l-7.8,7.8c-.6.6-1.5.6-2.1,0l-7.8-7.8c-.6-.6-1.5-.6-2.1,0h0c-.6.6-.6,1.5,0,2.1l7.8,7.8c.6.6.6,1.5,0,2.1l-7.8,7.8c-.6.6-.6,1.5,0,2.1h0c.6.6,1.5.6,2.1,0l7.8-7.8c.6-.6,1.5-.6,2.1,0l7.8,7.8c.6.6,1.5.6,2.1,0h0c.6-.6.6-1.5,0-2.1l-7.8-7.8c-.6-.6-.6-1.5,0-2.1l7.8-7.8c.6-.5.6-1.5,0-2.1Z"/>
  <polygon id="plus" class="st6" points="18 7.4 18 4.5 7.5 4.5 7.5 -6 4.5 -6 4.5 4.5 -6 4.5 -6 7.4 4.5 7.4 4.5 18 7.5 18 7.5 7.4 18 7.4"/>
  <path id="repeat" class="st6" d="M13.6,1.2l-4.3,4.8h3.3c0,3.9-2.9,7.1-6.5,7.1-1.1,0-2.1-.3-3.1-.9l-1.6,1.8c4.1,2.8,9.4,1.5,12-2.9.9-1.5,1.4-3.3,1.4-5.1h3.2L13.6,1.2ZM-.5,6C-.5,2.1,2.4-1.1,6-1.1c1.1,0,2.1.3,3.1.9l1.6-1.8C6.6-4.9,1.2-3.6-1.4.9c-.9,1.5-1.4,3.2-1.4,5.1h-3.2L-1.6,10.8,2.7,6H-.5Z"/>
  <path id="play" class="st6" d="M15.4,6L-2.1,18V-6L15.4,6Z"/>
  <g id="pause" class="st6">
    <rect id="Rectangle_1121" x="-4.3" y="-5.9" width="6.8" height="23.9"/>
    <rect id="Rectangle_1122" x="9.4" y="-5.9" width="6.8" height="23.9"/>
  </g>
  <g id="open_folder" class="st6">
    <path d="M18,5.3c-.2-1.1-1.2-2-2.4-2H2.4L-1.9,14.5h15c.4,0,.7-.1,1.1-.3.6-.3,1.1-.8,1.3-1.5l2.4-6.7c.1-.2.1-.5.1-.7Z"/>
    <path d="M.3,1.4h15c-.1-1-1-1.8-2.1-1.8H4.7l-2.2-2.1H-3.9c-1.1,0-2.1.9-2.1,2.1v12.8c0,1,.7,1.9,1.7,2.1L.3,1.4H.3Z"/>
  </g>
  <g id="Group_51" class="st6">
    <path id="Path_908" class="st4" d="M-2.82-.62l-1.7-1.7-.6.5L-3.42-.12h0l.6.6,1.7-1.7.6-.6,1.8-1.8-.6-.6-1.8,1.8s-1.7,1.8-1.7,1.8Z"/>
    <path id="Path_9081" class="st4" d="M-2.82,6.58l-1.7-1.7-.6.6,1.7,1.7h0l.6.6,1.7-1.7.6-.6,1.8-1.8-.6-.6-1.8,1.8s-1.7,1.7-1.7,1.7Z"/>
    <path id="Path_9082" class="st4" d="M-2.82,14.38l-1.7-1.7-.6.6,1.7,1.7h0l.6.6,1.7-1.7.6-.6,1.8-1.8-.6-.6-1.8,1.8s-1.7,1.7-1.7,1.7Z"/>
    <rect id="Rectangle_1161" class="st0" x="3.08" y="-2.32" width="13.3" height="1"/>
    <rect id="Rectangle_1162" class="st0" x="3.08" y="5.48" width="13.3" height="1"/>
    <rect id="Rectangle_1163" class="st0" x="3.08" y="13.18" width="13.3" height="1"/>
  </g>
  <g class="st6">
    <path id="Path_931" d="M8,.7c.1-.2.3-.3.4-.5,1.3-1.3,2.7-2.5,4-3.8.2-.3.7-.4,1-.2.1,0,.1.1.2.2L17.7.3c.3.2.4.6.2.9,0,.1-.1.1-.1.1-.1.1-.2.2-.4.3-.2.3-.7.3-1,.1,0,0-.1,0-.1-.1-.7-.7-1.4-1.3-2.1-2-.1,0-.1-.1-.2-.2v14.4c0,.3-.3.5-.6.5h-.8c-.3,0-.6-.2-.6-.5V-.4c-.07.07-.13.13-.2.2l-2.1,1.9c-.2.3-.7.3-1,.1-.1,0-.1-.1-.1-.1-.3-.2-.5-.5-.6-.7,0,0,0-.3,0-.3Z"/>
    <path id="Path_932" d="M.7,12.9h5.7c.7,0,1,.3,1,1v.7c0,.4-.3.8-.8.8H-5c-.5,0-.9-.2-.9-.6-.1-.4-.1-.9,0-1.3s.4-.7.8-.6H-1.6s2.3,0,2.3,0Z"/>
    <path id="Path_933" d="M-.5,10.1h-4.6c-.6,0-.9-.3-.9-1v-.7c0-.4.3-.8.7-.8H4c.7,0,.9.3.9,1v.5c.1.5-.2.9-.7.9H-.4l-.1.1Z"/>
    <path id="Path_934" d="M-1.5,4.9h-3.6c-.4.1-.8-.3-.8-.7-.07-.13-.1-.23-.1-.3v-.7c0-.4.3-.8.7-.8H2.1c.3,0,.6.1.7.4.1,0,.1.2.2.4v.8c0,.5-.3.9-.7.9,0,0-3.8,0-3.8,0Z"/>
    <path id="Path_935" d="M-2.7-1h-2.6c-.3,0-.6-.3-.7-.7v-1c0-.5.3-.8.6-.9H-.2c.4-.1.7.3.7.7v.8c.1.6-.1,1-.5,1.1,0,0-2.7,0-2.7,0Z"/>
    <path id="Path_9311" d="M18,11.1c-.1.2-.3.3-.4.5-1.3,1.3-2.7,2.6-4,3.9-.2.3-.7.4-1,.2-.1,0-.1-.1-.2-.2l-4.1-4c-.3-.2-.4-.6-.2-.9,0-.1.1-.1.1-.1l.4-.4c.2-.3.7-.3,1-.1,0,0,.1,0,.1.1.7.7,1.4,1.4,2.1,2,.1,0,.1.1.2.2V-2.7c0-.3.3-.6.6-.6h.8c.3.1.6.3.6.6v14.9l.2-.2,2.1-2c.2-.3.7-.4,1-.1.1,0,.1.1.1.1.3.2.5.4.6.7,0,0,0,.4,0,.4Z"/>
  </g>
</svg>

<?xml version="1.0" encoding="utf-8"?>
<!-- Generator: Adobe Illustrator 23.0.6, SVG Export Plug-In . SVG Version: 6.00 Build 0)  -->
<svg version="1.1" id="Слой_1" xmlns="http://www.w3.org/2000/svg" xmlns:xlink="http://www.w3.org/1999/xlink" x="0px" y="0px"
	 viewBox="0 0 12 12" style="enable-background:new 0 0 12 12;" xml:space="preserve">
<style type="text/css">
	.st0{fill:#FFFFFF;fill-opacity:0;}
	.st1{display:none;}
	.st2{display:inline;stroke:#000000;stroke-width:0.75;stroke-miterlimit:10;}
	.st3{display:inline;fill:none;stroke:#000000;stroke-width:1.5;stroke-miterlimit:10;}
	.st4{display:inline;stroke:#000000;stroke-width:1.5;stroke-miterlimit:10;}
	.st5{display:inline;}
	.st6{fill:#FFFFFF;}
	.st7{display:inline;stroke:#000000;stroke-miterlimit:10;}
	.st8{display:inline;stroke:#000000;stroke-width:1.837;stroke-miterlimit:10;}
</style>
<g>
	<rect class="st0" width="12" height="12"/>
</g>
<path class="st1" d="M14,0H6L4-2h-6c-1.1,0-2,0.9-2,2v12c0,1.1,0.9,2,2,2h16c1.1,0,2-0.9,2-2V2C16,0.9,15.1,0,14,0z"/>
<g id="SUPPORT" class="st1">
	<path class="st2" d="M-0.7,3.3c-2.2,0-4,1.8-4,4s1.8,4,4,4V3.3z"/>
	<path class="st2" d="M12.7,3.3c2.2,0,4,1.8,4,4s-1.8,4-4,4V3.3z"/>
	<path class="st3" d="M14.1,4.1C13.9-0.1,10.4-3.5,6-3.5s-7.7,3.4-7.9,7.6"/>
	<path class="st3" d="M7.2,15.1c4.5-0.2,7.3,0.1,6.7-7.5"/>
	<ellipse class="st4" cx="7.3" cy="15" rx="1.6" ry="0.9"/>
</g>
<path class="st1" d="M6-5.2L-5.2,6L6,17.2L17.2,6L6-5.2z M5,1h2v2H5V1z M7,5v6.1H5V5H7z"/>
<g class="st1">
	<circle class="st5" cx="6" cy="6" r="9.9"/>
	<g class="st5">
		<path class="st6" d="M4.7,9V8.5C4.6,7.4,4.9,6.2,6,4.9C6.9,3.8,7.4,3,7.4,2.1c0-1.1-0.7-1.8-2-1.8c-0.7,0-1.6,0.2-2.1,0.6L2.8-0.4
			c0.7-0.5,1.9-0.8,3-0.8c2.4,0,3.5,1.5,3.5,3c0,1.4-0.8,2.4-1.8,3.6c-0.9,1.1-1.2,2-1.2,3v0.5H4.7V9z M4.2,11.9
			c0-0.8,0.5-1.3,1.2-1.3s1.2,0.5,1.2,1.3c0,0.7-0.5,1.3-1.2,1.3C4.7,13.2,4.2,12.6,4.2,11.9z"/>
	</g>
</g>
<path id="settings" class="st1" d="M13.7,7c0-0.3,0.1-0.7,0.1-1s0-0.7-0.1-1l2.2-1.7c0.2-0.2,0.2-0.4,0.1-0.7L14-1
	c-0.1-0.2-0.4-0.3-0.6-0.2l-2.6,1C10.3-0.6,9.7-1,9-1.2L8.6-4c0-0.3-0.3-0.4-0.5-0.4H3.9C3.7-4.4,3.4-4.2,3.4-4L3-1.2
	c-0.6,0.3-1.2,0.6-1.8,1l-2.6-1C-1.6-1.3-1.8-1.2-2-1l-2,3.6c-0.2,0.2-0.1,0.5,0.1,0.7L-1.7,5c-0.1,0.7-0.1,1.4,0,2l-2.2,1.7
	C-4.1,8.9-4.1,9.1-4,9.4l2,3.6c0.1,0.2,0.4,0.3,0.6,0.2l2.6-1c0.5,0.4,1.1,0.8,1.8,1L3.4,16c0,0.3,0.3,0.4,0.5,0.4h4.2
	c0.3,0,0.5-0.2,0.5-0.4L9,13.2c0.6-0.3,1.2-0.6,1.8-1l2.6,1c0.2,0.1,0.5,0,0.6-0.2l2.1-3.6c0.1-0.2,0.1-0.5-0.1-0.7L13.7,7L13.7,7z
	 M6,9.9C3.8,9.9,2.1,8.2,2.1,6S3.8,2.1,6,2.1S9.9,3.8,9.9,6l0,0C9.9,8.2,8.1,9.9,6,9.9z"/>
<path id="share" class="st1" d="M8.8,13.4l-6.9-4c-1.8,1.8-4.6,1.9-6.4,0.1S-6.4,5-4.6,3.2S0,1.3,1.8,3C1.9,3.2,2,3.3,2.2,3.4L8.9,0
	C8.1-2.4,9.5-5,12-5.6c2.4-0.8,5,0.6,5.6,3.1c0.6,2.4-0.6,5-3.1,5.6c-1.4,0.4-2.9,0.1-4.1-0.8L3.2,6c0,0.1,0,0.3,0,0.4
	c0,0.3,0,0.4,0,0.6l6.5,3.7c1.4-2,4.3-2.6,6.4-1c2,1.4,2.6,4.3,1,6.4c-1.5,2-4.3,2.6-6.4,1C9.6,16.2,8.8,14.8,8.8,13.4L8.8,13.4z"/>
<path id="error" class="st1" d="M-6,16.4h24L6.1-4.4L-6,16.4z M7.5,14.5H4.6v-2.2h2.9V14.5z M7.5,11.2H4.6V4.3h2.9V11.2z"/>
<path id="galka" d="M4,8L1,5L0,7.4L4,11l8-7.9L11,1L4,8z"/>
<path id="arrow_down" class="st1" d="M6,18l5-5.1H7.3V-6H4.8v18.9H1L6,18z"/>
<path id="arrow_up" class="st1" d="M6-6L0.9-0.9h3.8V18h2.5V-0.9H11L6-6z"/>
<g id="menu" class="st1">
	<circle class="st5" cx="247" cy="145.8" r="2.8"/>
	<circle class="st5" cx="247" cy="136.6" r="2.8"/>
	<circle class="st5" cx="247" cy="155" r="2.8"/>
</g>
<g id="burger_1_" class="st1">
	<rect x="-6" y="-3" class="st5" width="24" height="3.4"/>
	<rect x="-6" y="4.3" class="st5" width="24" height="3.4"/>
	<rect x="-6" y="11.6" class="st5" width="24" height="3.4"/>
</g>
<polygon id="arrow_back" class="st1" points="15.8,4.1 2.7,4.1 10.6,-3.6 8.2,-6 -1.4,3.6 -1.4,3.6 -3.8,6 -3.8,6 -3.8,6 -1.4,8.4 
	-1.4,8.4 8.2,18 10.6,15.6 2.6,7.7 15.8,7.7 "/>
<path id="search" class="st1" d="M11.1,9H10L9.6,8.6c3.1-3.7,2.8-9.4-1-12.5C5-7-0.6-6.7-3.8-2.9c-3.1,3.7-2.8,9.4,1,12.5
	c3.3,2.9,8.2,2.9,11.6,0L9.2,10v1.1L16,18l2-2L11.1,9z M3,9L3,9c-3.4,0-6.2-2.8-6.2-6.2S-0.4-3.4,3-3.4s6.2,2.8,6.2,6.2S6.4,9,3,9z"
	/>
<path id="back" class="st1" d="M45.3,134.8L45.3,134.8c-0.6-0.6-1.5-0.6-2.1,0l-7.8,7.8c-0.6,0.6-1.5,0.6-2.1,0l-7.8-7.8
	c-0.6-0.6-1.5-0.6-2.1,0l0,0c-0.6,0.6-0.6,1.5,0,2.1l7.8,7.8c0.6,0.6,0.6,1.5,0,2.1l-7.8,7.8c-0.6,0.6-0.6,1.5,0,2.1l0,0
	c0.6,0.6,1.5,0.6,2.1,0l7.8-7.8c0.6-0.6,1.5-0.6,2.1,0l7.8,7.8c0.6,0.6,1.5,0.6,2.1,0l0,0c0.6-0.6,0.6-1.5,0-2.1l-7.8-7.8
	c-0.6-0.6-0.6-1.5,0-2.1l7.8-7.8C45.9,136.4,45.9,135.4,45.3,134.8z"/>
<polygon id="plus" class="st1" points="18,7.4 18,4.5 7.5,4.5 7.5,-6 4.5,-6 4.5,4.5 -6,4.5 -6,7.4 4.5,7.4 4.5,18 7.5,18 7.5,7.4 
	"/>
<path id="repeat" class="st1" d="M13.6,1.2L9.3,6h3.3c0,3.9-2.9,7.1-6.5,7.1C5,13.1,4,12.8,3,12.2L1.4,14c4.1,2.8,9.4,1.5,12-2.9
	c0.9-1.5,1.4-3.3,1.4-5.1H18L13.6,1.2z M-0.5,6c0-3.9,2.9-7.1,6.5-7.1c1.1,0,2.1,0.3,3.1,0.9L10.7-2C6.6-4.9,1.2-3.6-1.4,0.9
	C-2.3,2.4-2.8,4.1-2.8,6H-6l4.4,4.8L2.7,6H-0.5z"/>
<path id="play" class="st1" d="M15.4,6L-2.1,18V-6L15.4,6z"/>
<g id="pause" class="st1">
	<rect id="Rectangle_1121" x="-4.3" y="-5.9" class="st5" width="6.8" height="23.9"/>
	<rect id="Rectangle_1122" x="9.4" y="-5.9" class="st5" width="6.8" height="23.9"/>
</g>
<g id="open_folder" class="st1">
	<path class="st5" d="M18,5.3c-0.2-1.1-1.2-2-2.4-2h-0.3H2.4l0,0l-4.3,11.2h15c0.4,0,0.7-0.1,1.1-0.3c0.6-0.3,1.1-0.8,1.3-1.5
		L17.9,6C18,5.8,18,5.5,18,5.3z"/>
	<path class="st5" d="M0.3,1.4L0.3,1.4L0.3,1.4L0.3,1.4h15c-0.1-1-1-1.8-2.1-1.8H4.7L2.5-2.5h-6.4C-5-2.5-6-1.6-6-0.4v12.8
		c0,1,0.7,1.9,1.7,2.1L0.3,1.4L0.3,1.4z"/>
</g>
<g id="Group_51" transform="translate(-238.116 -7.817)" class="st1">
	<path id="Path_908_1_" class="st7" d="M235.3,7.2l-1.7-1.7L233,6l1.7,1.7l0,0l0.6,0.6l1.7-1.7l0.6-0.6l1.8-1.8l-0.6-0.6L237,5.4
		L235.3,7.2z"/>
	<path id="Path_908_2_" class="st7" d="M235.3,14.4l-1.7-1.7l-0.6,0.6l1.7,1.7l0,0l0.6,0.6l1.7-1.7l0.6-0.6l1.8-1.8l-0.6-0.6
		l-1.8,1.8L235.3,14.4z"/>
	<path id="Path_908_3_" class="st7" d="M235.3,22.2l-1.7-1.7l-0.6,0.6l1.7,1.7l0,0l0.6,0.6l1.7-1.7l0.6-0.6l1.8-1.8l-0.6-0.6
		l-1.8,1.8L235.3,22.2z"/>
	<rect id="Rectangle_1161" x="241.2" y="5.5" class="st8" width="13.3" height="1"/>
	<rect id="Rectangle_1162" x="241.2" y="13.3" class="st8" width="13.3" height="1"/>
	<rect id="Rectangle_1163" x="241.2" y="21" class="st8" width="13.3" height="1"/>
</g>
<g class="st1">
	<path id="Path_931" class="st5" d="M8,0.7c0.1-0.2,0.3-0.3,0.4-0.5c1.3-1.3,2.7-2.5,4-3.8c0.2-0.3,0.7-0.4,1-0.2
		c0.1,0,0.1,0.1,0.2,0.2l4.1,3.9c0.3,0.2,0.4,0.6,0.2,0.9c0,0.1-0.1,0.1-0.1,0.1c-0.1,0.1-0.2,0.2-0.4,0.3c-0.2,0.3-0.7,0.3-1,0.1
		c0,0-0.1,0-0.1-0.1c-0.7-0.7-1.4-1.3-2.1-2c-0.1,0-0.1-0.1-0.2-0.2v0.3c0,4.6,0,9.2,0,13.8c0,0.1,0,0.2,0,0.3
		c0,0.3-0.3,0.5-0.6,0.5c-0.3,0-0.5,0-0.8,0S12,14.1,12,13.8c0-0.1,0-0.2,0-0.3c0-4.6,0-9.2,0-13.8v-0.1c-0.1,0.1-0.1,0.1-0.2,0.2
		L9.7,1.7C9.5,2,9,2,8.7,1.8c-0.1,0-0.1-0.1-0.1-0.1C8.3,1.5,8.1,1.2,8,1V0.7z"/>
	<path id="Path_932" class="st5" d="M0.7,12.9h5.7c0.7,0,1,0.3,1,1c0,0.2,0,0.4,0,0.7c0,0.4-0.3,0.8-0.8,0.8c-0.1,0-0.1,0-0.2,0H-5
		c-0.5,0-0.9-0.2-0.9-0.6c-0.1-0.4-0.1-0.9,0-1.3s0.4-0.7,0.8-0.6c1.2,0,2.3,0,3.5,0H0.7z"/>
	<path id="Path_933" class="st5" d="M-0.5,10.1h-4.6c-0.6,0-0.9-0.3-0.9-1c0-0.2,0-0.5,0-0.7C-6,8-5.7,7.6-5.3,7.6
		c0.1,0,0.1,0,0.2,0H4c0.7,0,0.9,0.3,0.9,1c0,0.2,0,0.4,0,0.5C5,9.6,4.7,10,4.2,10c-0.1,0-0.1,0-0.2,0c-1.5,0-3,0-4.4,0L-0.5,10.1z"
		/>
	<path id="Path_934" class="st5" d="M-1.5,4.9h-3.6C-5.5,5-5.9,4.6-5.9,4.2C-6,4-6,4-6,3.9c0-0.2,0-0.5,0-0.7c0-0.4,0.3-0.8,0.7-0.8
		c0.1,0,0.1,0,0.2,0c2.4,0,4.8,0,7.2,0c0.3,0,0.6,0.1,0.7,0.4C2.9,2.8,2.9,3,3,3.2C3,3.4,3,3.7,3,4c0,0.5-0.3,0.9-0.7,0.9H2.2
		C0.9,4.9-0.3,4.9-1.5,4.9z"/>
	<path id="Path_935" class="st5" d="M-2.7-1c-0.9,0-1.7,0-2.6,0C-5.6-1-5.9-1.3-6-1.7C-6-1.8-6-1.9-6-2c0-0.2,0-0.5,0-0.7
		c0-0.5,0.3-0.8,0.6-0.9l0,0h0.1h5.1c0.4-0.1,0.7,0.3,0.7,0.7c0,0.1,0,0.2,0,0.2c0,0.2,0,0.4,0,0.6C0.6-1.5,0.4-1.1,0-1
		c-0.1,0-0.1,0-0.2,0H-2.7z"/>
	<path id="Path_931_1_" class="st5" d="M18,11.1c-0.1,0.2-0.3,0.3-0.4,0.5c-1.3,1.3-2.7,2.6-4,3.9c-0.2,0.3-0.7,0.4-1,0.2
		c-0.1,0-0.1-0.1-0.2-0.2l-4.1-4c-0.3-0.2-0.4-0.6-0.2-0.9c0-0.1,0.1-0.1,0.1-0.1c0.1-0.1,0.2-0.2,0.4-0.4c0.2-0.3,0.7-0.3,1-0.1
		c0,0,0.1,0,0.1,0.1c0.7,0.7,1.4,1.4,2.1,2c0.1,0,0.1,0.1,0.2,0.2V12c0-4.8,0-9.6,0-14.4c0-0.1,0-0.2,0-0.3c0-0.3,0.3-0.6,0.6-0.6
		c0.3,0,0.5,0,0.8,0C13.7-3.2,14-3,14-2.7c0,0.1,0,0.2,0,0.3c0,4.8,0,9.6,0,14.3v0.3c0.1-0.1,0.1-0.1,0.2-0.2l2.1-2
		c0.2-0.3,0.7-0.4,1-0.1c0.1,0,0.1,0.1,0.1,0.1c0.3,0.2,0.5,0.4,0.6,0.7L18,11.1z"/>
</g>
</svg>
